newicons/sonic_dash.svg

<?xml version="1.0" encoding="UTF-8" standalone="no"?>
<svg
   viewBox="0 0 48 48"
   version="1.1"
   id="svg1"
   sodipodi:docname="sonic_dash.svg"
   inkscape:version="1.2.2 (b0a8486541, 2022-12-01)"
   xml:space="preserve"
   xmlns:inkscape="http://www.inkscape.org/namespaces/inkscape"
   xmlns:sodipodi="http://sodipodi.sourceforge.net/DTD/sodipodi-0.dtd"
   xmlns="http://www.w3.org/2000/svg"
   xmlns:svg="http://www.w3.org/2000/svg"><sodipodi:namedview
     id="namedview1"
     pagecolor="#505050"
     bordercolor="#eeeeee"
     borderopacity="1"
     inkscape:showpageshadow="0"
     inkscape:pageopacity="0"
     inkscape:pagecheckerboard="0"
     inkscape:deskcolor="#505050"
     inkscape:zoom="12.59534"
     inkscape:cx="16.831622"
     inkscape:cy="30.130192"
     inkscape:window-width="1912"
     inkscape:window-height="1054"
     inkscape:window-x="0"
     inkscape:window-y="0"
     inkscape:window-maximized="1"
     inkscape:current-layer="svg1"
     showgrid="false" /><defs
     id="defs1"><style
       id="style1">.a { fill:none;stroke:#fff;stroke-linecap:round;stroke-linejoin:round; }
</style></defs><path
     style="fill:none;stroke:#ffffff;stroke-linecap:round;stroke-linejoin:round;stroke-opacity:1;stop-color:#000000"
     d="m 9.5,5.5 h 29 c 2.216,0 4,1.784 4,4 v 29 c 0,2.216 -1.784,4 -4,4 h -29 c -2.216,0 -4,-1.784 -4,-4 v -29 c 0,-2.216 1.784,-4 4,-4 z"
     id="path5764" /><g
     id="g6404"><path
       id="path3858"
       style="fill:none;stroke:#ffffff;stroke-width:1;stroke-linecap:round;stroke-linejoin:round;stroke-opacity:1;stop-color:#000000"
       d="M 26.53891 25.234338 C 28.386352 21.27908 27.643209 16.736516 25.253765 16.387267 C 19.486655 15.544329 21.631332 25.613666 18.581055 25.100432 C 16.025059 24.670364 14.617867 19.167128 12.856725 19.948843 C 11.468388 20.565081 13.281053 25.606183 14.21824 26.670857 " /><path
       id="path6321"
       style="fill:none;stroke:#ffffff;stroke-width:1;stroke-linecap:round;stroke-linejoin:round;stroke-opacity:1;stop-color:#000000"
       d="M 17.170728 27.363258 C 16.773748 27.586205 16.349076 27.728926 15.94693 27.728179 C 14.497429 27.725479 14.542299 27.591008 14.824435 27.972123 C 15.819537 29.316328 17.398509 30.44452 20.109052 30.376136 L 20.109052 30.376133 C 23.29381 30.427713 25.630876 29.087611 26.617986 26.628937 C 26.968545 25.343359 25.183263 25.878876 23.232176 26.641007 C 22.004103 27.120716 21.322346 26.963772 20.403588 26.721377 " /><path
       id="path6319"
       style="fill:none;stroke:#ffffff;stroke-width:1;stroke-linecap:round;stroke-linejoin:round;stroke-opacity:1;stop-color:#000000"
       d="M 18.115297 26.418059 L 18.906131 26.754722 " /><g
       id="g6390"><path
         id="path6317"
         style="fill:none;stroke:#ffffff;stroke-width:1;stroke-linecap:round;stroke-linejoin:round;stroke-opacity:1;stop-color:#000000"
         d="M 23.611472 12.260536 C 24.440625 10.396731 26.196815 8.0739117 28.086825 7.3611448 C 28.937022 9.9010123 29.234728 12.545365 28.440995 14.74206 " /><path
         id="path6315"
         style="fill:none;stroke:#ffffff;stroke-width:1;stroke-linecap:round;stroke-linejoin:round;stroke-opacity:1;stop-color:#000000"
         d="M 12.273543 18.460839 C 10.597576 16.739954 9.4379685 14.255479 8.697914 11.822292 C 9.3827614 11.200365 13.108977 12.906313 14.812879 13.591335 " /></g><g
       id="g6386"><path
         id="path6313"
         style="fill:none;stroke:#ffffff;stroke-width:1;stroke-linecap:round;stroke-linejoin:round;stroke-opacity:1;stop-color:#000000"
         d="M 23.296861 9.2399699 C 20.691253 9.4495249 18.06983 10.340598 15.89136 12.038836 " /><path
         id="path6311"
         style="fill:none;stroke:#ffffff;stroke-width:1;stroke-linecap:round;stroke-linejoin:round;stroke-opacity:1;stop-color:#000000"
         d="M 38.710965 24.883296 C 38.342 21.244084 36.713189 16.966748 32.830965 14.464806 L 34.445757 13.844901 C 33.608627 12.478747 32.29992 11.373766 30.716621 10.583917 " /><path
         id="path6309"
         style="fill:none;stroke:#ffffff;stroke-width:1;stroke-linecap:round;stroke-linejoin:round;stroke-opacity:1;stop-color:#000000"
         d="M 24.359849 30.209464 C 25.945031 30.011719 27.38296 30.5594 28.54534 31.653056 " /><path
         id="path6307"
         style="fill:none;stroke:#ffffff;stroke-width:1;stroke-linecap:round;stroke-linejoin:round;stroke-opacity:1;stop-color:#000000"
         d="M 27.177307 36.435687 C 27.52119 37.515662 27.437909 38.594136 27.312658 39.665888 C 26.900314 39.10215 26.362077 38.503375 25.759417 38.101688 " /><path
         id="path6305"
         style="fill:none;stroke:#ffffff;stroke-width:1;stroke-linecap:round;stroke-linejoin:round;stroke-opacity:1;stop-color:#000000"
         d="M 14.381809 29.619352 C 14.497947 30.118223 14.691217 30.691929 14.944617 31.289757 " /></g></g><g
     id="g6379"><g
       id="g6359"><path
         id="path6303"
         style="fill:none;stroke:#ffffff;stroke-width:1;stroke-linecap:round;stroke-linejoin:round;stroke-opacity:1;stop-color:#000000"
         d="M 34.615229 24.928457 C 34.859034 23.121082 34.921514 20.662333 33.25325 20.709511 C 31.467371 20.760011 31.186913 22.473695 31.575715 24.81708 C 31.796657 26.148737 31.2891 27.074894 31.578015 28.555526 " /><path
         id="path6301"
         style="fill:none;stroke:#ffffff;stroke-width:1;stroke-linecap:round;stroke-linejoin:round;stroke-opacity:1;stop-color:#000000"
         d="M 31.514058 27.006165 C 32.082539 25.278411 33.93381 24.770366 35.744575 25.201969 C 38.153493 25.776142 38.935356 27.939551 38.829997 29.75077 C 38.641326 32.994218 38.862545 36.281994 37.15689 37.505434 C 36.26452 38.145517 34.431073 38.40007 33.173495 38.13397 " /><path
         id="path6299"
         style="fill:none;stroke:#ffffff;stroke-width:1;stroke-linecap:round;stroke-linejoin:round;stroke-opacity:1;stop-color:#000000"
         d="M 37.07286 28.896382 C 35.724812 28.123688 34.788263 27.521676 33.216376 27.859654 C 30.935975 28.349974 31.003438 29.832424 31.459898 31.272154 " /><path
         id="path6297"
         style="fill:none;stroke:#ffffff;stroke-width:1;stroke-linecap:round;stroke-linejoin:round;stroke-opacity:1;stop-color:#000000"
         d="M 36.757559 31.808892 C 35.958559 31.503852 35.207117 31.128243 34.288496 30.984015 C 32.185892 30.653898 31.219095 31.119923 30.919787 32.214622 C 30.683094 33.080314 30.976208 33.593741 31.507121 33.765831 " /><path
         id="path6295"
         style="fill:none;stroke:#ffffff;stroke-width:1;stroke-linecap:round;stroke-linejoin:round;stroke-opacity:1;stop-color:#000000"
         d="M 35.686382 34.41926 C 34.526409 34.078034 34.223561 33.979453 32.65758 33.806938 C 30.856867 33.608564 30.677981 34.580839 30.636722 35.225412 C 30.582422 36.073776 31.005367 36.973629 31.535608 36.899582 C 32.418678 36.776264 33.398944 36.863962 34.948131 37.21425 " /><path
         id="path6293"
         style="fill:none;stroke:#ffffff;stroke-width:1;stroke-linecap:round;stroke-linejoin:round;stroke-opacity:1;stop-color:#000000"
         d="M 32.126532 39.018755 C 28.603319 39.639328 27.621436 33.406875 29.546916 32.536407 " /></g><path
       id="path6291"
       style="fill:none;stroke:#ffffff;stroke-width:1;stroke-linecap:round;stroke-linejoin:round;stroke-opacity:1;stop-color:#000000"
       d="M 27.730738 34.940759 C 26.792749 33.863467 26.062774 33.339794 25.312843 32.666529 " /></g><g
     id="g6369"><path
       id="path6289"
       style="fill:none;stroke:#ffffff;stroke-width:1;stroke-linecap:round;stroke-linejoin:round;stroke-opacity:1;stop-color:#000000"
       d="M 17.010782 32.337303 L 15.618896 32.417043 C 15.136066 32.444703 14.847038 33.20502 14.912961 33.683849 L 15.242499 36.07746 " /><g
       id="g6363"><path
         id="path6287"
         style="fill:none;stroke:#ffffff;stroke-width:1;stroke-linecap:round;stroke-linejoin:round;stroke-opacity:1;stop-color:#000000"
         d="M 10.117668 42.500859 C 9.9334658 42.180716 9.7790184 41.854209 9.7177036 41.502895 L 10.183328 40.731103 C 10.280418 39.660721 11.447658 39.393215 11.85715 40.212883 C 12.660788 40.454172 11.706832 39.20656 12.512169 39.080712 L 14.063585 38.838278 L 14.076955 38.634808 " /><path
         id="path6281"
         style="fill:none;stroke:#ffffff;stroke-width:1;stroke-linecap:round;stroke-linejoin:round;stroke-opacity:1;stop-color:#000000"
         d="M 15.606003 39.665148 C 15.198386 39.561514 14.849038 39.402138 14.645134 39.254883 C 14.112573 38.870279 14.298532 38.036757 14.086505 37.148034 C 14.464643 37.427703 14.87493 37.530189 15.419939 37.513914 " /></g></g><g
     id="g6410"><path
       id="path6277"
       style="fill:none;stroke:#ffffff;stroke-width:1;stroke-linecap:round;stroke-linejoin:round;stroke-opacity:1;stop-color:#000000"
       d="M 25.090852 35.204604 C 24.837641 36.788405 23.743876 38.592816 22.305667 39.449314 L 23.596892 42.500078 " /><path
       id="path6273"
       style="fill:none;stroke:#ffffff;stroke-width:1;stroke-linecap:round;stroke-linejoin:round;stroke-opacity:1;stop-color:#000000"
       d="M 19.119659 30.577379 C 16.342152 31.723217 16.078694 36.153917 16.913903 38.692952 L 17.258244 42.500233 " /><path
       id="path6271"
       style="fill:none;stroke:#ffffff;stroke-width:1;stroke-linecap:round;stroke-linejoin:round;stroke-opacity:1;stop-color:#000000"
       d="M 20.710705 30.407027 C 22.07339 30.298244 24.511014 32.285284 23.048857 35.971034 C 22.104039 38.352698 20.27693 40.096587 18.444099 39.481398 C 17.975838 39.324227 16.99348 38.696821 16.618526 37.448281 " /><path
       id="path6267"
       style="fill:none;stroke:#ffffff;stroke-width:1;stroke-linecap:round;stroke-linejoin:round;stroke-opacity:1;stop-color:#000000"
       d="M 21.137722 42.499985 L 20.634045 41.123001 L 19.30005 40.789535 L 19.529544 42.500602 " /></g></svg>

<?xml version="1.0" encoding="UTF-8"?><svg id="b" xmlns="http://www.w3.org/2000/svg" viewBox="0 0 48 48"><defs><style>.am{fill:none;stroke:#fff;stroke-linecap:round;stroke-linejoin:round;}</style></defs><path id="f" class="am" d="M9.5,5.4996h29c2.216,0,4,1.784,4,4v29c0,2.216-1.784,4-4,4H9.5c-2.216,0-4-1.784-4-4V9.4996c0-2.216,1.784-4,4-4Z"/><g id="g"><path id="h" class="am" d="M26.5389,25.2339c1.8474-3.9553,1.1043-8.4978-1.2851-8.8471-5.7671-.8429-3.6224,9.2264-6.6727,8.7132-2.556-.4301-3.9632-5.9333-5.7243-5.1516-1.3883.6162.4243,5.6573,1.3615,6.722"/><path id="i" class="am" d="M17.1707,27.3628c-.397.2229-.8217.3657-1.2238.3649-1.4495-.0027-1.4046-.1372-1.1225.2439.9951,1.3442,2.5741,2.4724,5.2846,2.404h0c3.1848.0516,5.5218-1.2885,6.5089-3.7472.3506-1.2856-1.4347-.7501-3.3858.0121-1.2281.4797-1.9098.3228-2.8286.0804"/><path id="j" class="am" d="M18.1153,26.4176l.7908.3367"/><g id="k"><path id="l" class="am" d="M23.6115,12.2601c.8292-1.8638,2.5853-4.1866,4.4754-4.8994.8502,2.5399,1.1479,5.1842.3542,7.3809"/><path id="m" class="am" d="M12.2735,18.4604c-1.676-1.7209-2.8356-4.2054-3.5756-6.6385.6848-.6219,4.4111,1.084,6.115,1.769"/></g><g id="n"><path id="o" class="am" d="M23.2969,9.2395c-2.6056.2096-5.227,1.1006-7.4055,2.7989"/><path id="p" class="am" d="M38.711,24.8829c-.369-3.6392-1.9978-7.9165-5.88-10.4185l1.6148-.6199c-.8371-1.3662-2.1458-2.4711-3.7291-3.261"/><path id="q" class="am" d="M24.3598,30.209c1.5852-.1977,3.0231.3499,4.1855,1.4436"/><path id="r" class="am" d="M27.1773,36.4353c.3439,1.08.2606,2.1584.1354,3.2302-.4123-.5637-.9506-1.1625-1.5532-1.5642"/><path id="s" class="am" d="M14.3818,29.6189c.1161.4989.3094,1.0726.5628,1.6704"/></g></g><g id="t"><g id="u"><path id="v" class="am" d="M34.6152,24.928c.2438-1.8074.3063-4.2661-1.362-4.2189-1.7859.0505-2.0663,1.7642-1.6775,4.1076.2209,1.3317-.2866,2.2578.0023,3.7384"/><path id="w" class="am" d="M31.5141,27.0057c.5685-1.7278,2.4198-2.2358,4.2305-1.8042,2.4089.5742,3.1908,2.7376,3.0854,4.5488-.1887,3.2434.0325,6.5312-1.6731,7.7547-.8924.6401-2.7258.8946-3.9834.6285"/><path id="x" class="am" d="M37.0729,28.896c-1.348-.7727-2.2846-1.3747-3.8565-1.0367-2.2804.4903-2.2129,1.9728-1.7565,3.4125"/><path id="y" class="am" d="M36.7576,31.8085c-.799-.305-1.5504-.6806-2.4691-.8249-2.1026-.3301-3.0694.1359-3.3687,1.2306-.2367.8657.0564,1.3791.5873,1.5512"/><path id="z" class="am" d="M35.6864,34.4188c-1.16-.3412-1.4628-.4398-3.0288-.6123-1.8007-.1984-1.9796.7739-2.0209,1.4185-.0543.8484.3686,1.7482.8989,1.6742.8831-.1233,1.8633-.0356,3.4125.3147"/><path id="aa" class="am" d="M32.1265,39.0183c-3.5232.6206-4.5051-5.6119-2.5796-6.4823"/></g><path id="ab" class="am" d="M27.7307,34.9403c-.938-1.0773-1.668-1.601-2.4179-2.2742"/></g><g id="ac"><path id="ad" class="am" d="M17.0108,32.3369l-1.3919.0797c-.4828.0277-.7719.788-.7059,1.2668l.3295,2.3936"/><g id="ae"><path id="af" class="am" d="M10.1177,42.5004c-.1842-.3201-.3386-.6466-.4-.998l.4656-.7718c.0971-1.0704,1.2643-1.3379,1.6738-.5182.8036.2413-.1503-1.0063.655-1.1322l1.5514-.2424.0134-.2035"/><path id="ag" class="am" d="M15.606,39.6647c-.4076-.1036-.757-.263-.9609-.4103-.5326-.3846-.3466-1.2181-.5586-2.1068.3781.2797.7884.3822,1.3334.3659"/></g></g><g id="ah"><path id="ai" class="am" d="M25.0909,35.2042c-.2532,1.5838-1.347,3.3882-2.7852,4.2447l1.2912,3.0508"/><path id="aj" class="am" d="M19.1197,30.577c-2.7775,1.1458-3.041,5.5765-2.2058,8.1156l.3443,3.8073"/><path id="ak" class="am" d="M20.7107,30.4066c1.3627-.1088,3.8003,1.8783,2.3382,5.564-.9448,2.3817-2.7719,4.1256-4.6048,3.5104-.4683-.1572-1.4506-.7846-1.8256-2.0331"/><path id="al" class="am" d="M21.1377,42.4996l-.5037-1.377-1.334-.3335.2295,1.7111"/></g></svg>
